gama.ui.shared/icons_svg/dark/status/status.progress1.svg

<svg height="24.75" viewBox="-886.872 -3408.886 24.75 24.75" width="24.75" xmlns="http://www.w3.org/2000/svg"><path d="m-870.0525-3390.96c1.665-1.333 2.6666-3.3568 2.6666-5.5516 0-3.7634-2.9326-6.8694-6.6707-7.0977-.245-.0149-.4315-.2257-.4165-.4707s.2257-.4315.4707-.4165c4.2064.2567 7.5054 3.7509 7.5054 7.9849 0 2.456-1.1156 4.7226-2.9708 6.2223h2.5264c.2455 0 .4444.1989.4444.4443 0 .2456-.1989.4445-.4444.4445h-3.5556c-.2454 0-.4444-.1989-.4444-.4445v-3.5555c0-.2455.199-.4445.4444-.4445.2455 0 .4445.199.4445.4445zm-8.8889-11.1033c-1.6649 1.3333-2.6667 3.3568-2.6667 5.5517 0 3.7756 2.9508 6.8876 6.703 7.0996.245.014.4325.2238.4186.469-.0138.245-.2237.4324-.4688.4185-4.2222-.2385-7.5417-3.7395-7.5417-7.9871 0-2.4561 1.1158-4.7224 2.9709-6.2222h-2.5264c-.2455 0-.4445-.199-.4445-.4444 0-.2455.199-.4445.4445-.4445h3.5555c.2455 0 .4445.199.4445.4445v3.5555c0 .2455-.199.4445-.4445.4445-.2454 0-.4444-.199-.4444-.4445z" fill="#8eed62"/></svg>

<?xml version="1.0" encoding="UTF-8" standalone="no"?>
<!DOCTYPE svg PUBLIC "-//W3C//DTD SVG 1.1//EN" "http://www.w3.org/Graphics/SVG/1.1/DTD/svg11.dtd">
<svg xmlns="http://www.w3.org/2000/svg" xmlns:xl="http://www.w3.org/1999/xlink" version="1.1" xmlns:dc="http://purl.org/dc/elements/1.1/" viewBox="-886.872 -3408.8856 24.75 24.75" width="24.75" height="24.75">
  <defs/>
  <g id="SOURCES" stroke-opacity="1" fill="none" stroke="none" fill-opacity="1" stroke-dasharray="none">
    <title>SOURCES</title>
    <g id="SOURCES_Dark">
      <title>Dark</title>
      <g id="Graphic_11598"/>
      <g id="Graphic_11599">
        <path d="M -870.0525 -3390.96 C -868.3875 -3392.293 -867.3859 -3394.3168 -867.3859 -3396.5116 C -867.3859 -3400.275 -870.3185 -3403.381 -874.0566 -3403.6093 C -874.3016 -3403.6242 -874.4881 -3403.835 -874.4731 -3404.08 C -874.4581 -3404.325 -874.2474 -3404.5115 -874.0024 -3404.4965 C -869.796 -3404.2398 -866.497 -3400.7456 -866.497 -3396.5116 C -866.497 -3394.0556 -867.6126 -3391.789 -869.4678 -3390.2893 L -866.9414 -3390.2893 C -866.6959 -3390.2893 -866.497 -3390.0904 -866.497 -3389.845 C -866.497 -3389.5994 -866.6959 -3389.4005 -866.9414 -3389.4005 L -870.497 -3389.4005 C -870.7424 -3389.4005 -870.9414 -3389.5994 -870.9414 -3389.845 L -870.9414 -3393.4005 C -870.9414 -3393.646 -870.7424 -3393.845 -870.497 -3393.845 C -870.2515 -3393.845 -870.0525 -3393.646 -870.0525 -3393.4005 L -870.0525 -3390.96 Z M -878.9414 -3402.0633 C -880.6063 -3400.73 -881.6081 -3398.7065 -881.6081 -3396.5116 C -881.6081 -3392.736 -878.6573 -3389.624 -874.9051 -3389.412 C -874.6601 -3389.398 -874.4726 -3389.1882 -874.4865 -3388.943 C -874.5003 -3388.698 -874.7102 -3388.5106 -874.9553 -3388.5245 C -879.1775 -3388.763 -882.497 -3392.264 -882.497 -3396.5116 C -882.497 -3398.9677 -881.3812 -3401.234 -879.5261 -3402.7338 L -882.0525 -3402.7338 C -882.298 -3402.7338 -882.497 -3402.9328 -882.497 -3403.1782 C -882.497 -3403.4237 -882.298 -3403.6227 -882.0525 -3403.6227 L -878.497 -3403.6227 C -878.2515 -3403.6227 -878.0525 -3403.4237 -878.0525 -3403.1782 L -878.0525 -3399.6227 C -878.0525 -3399.3772 -878.2515 -3399.1782 -878.497 -3399.1782 C -878.7424 -3399.1782 -878.9414 -3399.3772 -878.9414 -3399.6227 Z" fill="#8eed62"/>
      </g>
    </g>
  </g>
</svg>
